X:334
T:Walzer GC chords
M:3/4
L:1/8
K:Gmaj%%MIDI gchordon
"G"B3 F GE | "Am"ED DC A,2 | "D7"ED DC A,2 | "G"ED DC B,D | \ 
B3 F GE | "Am"ED DC A,C | "D7"ED DC A,F | "G"Ge d^c d2 :| 
|: "D7"cB A3 c | "G"BA G3 B | "D7"AG FD EF | "G"Ge dc d2 | \ 
"D7"cB A3 c | "G"BA G3 B | "D7"AG FD EF | "G"G2 z2 z2 :| 
K:Cmaj%%MIDI gchordon
|: "C"[Ge][Ge] [Ge]2 [Fd]2 | "F"[Ac][Ac] [Ac]2 [GB]2 | [Fd][Fd] [Fd]2 [Ac]2 | "G7"[DGB]6 | \ 
[Af][Af] [Af]2 [Ge]2 | [Fd][Fd] [Fd]2 [Ec]2 | [B,G]2 [DGB]2 [DGB]2 | "C"[CEc]2 z2 z2 :|
|: "C"G>e c2 G2 | G>e c2 G2 | "G7"Gf BG fB | "C"Ge ce G2 | \ 
Ge cG ec | Ge cG ec | "G7"Gf BG ed | c2 z2 z2 :| 

